X:628
T:Reel 628
M:4/4
K:Cmaj
L:1/8
GE|: (3EDC DE DG,G,G, (3G,F,G, |CEGc cedc|BGGF G2GF||EcdB cAGF:||2EGFD ECC2| (3EGC GE ACGC| (3EDC GA BDGF| (3EDC GC ACGC|FDEC G,CCF| (3EDC GC ACGC| (3EDC GC B,DDF|EGcB  (3cBA GE|FDBD ECC2|
